X: 1
T: Old Torn Petticoat, The
M: 4/4
L: 1/8
R: reel
K: Ador
AB|c2 Bc AGEF|G2 BG DGBG|cABG A~E3|GABG A2 AB|
|c2 (3BcB AGEF|(3GGG BG dGBG|cABG A~E3|GABG A2 AB||
|cdef g2 ea|aged cA A2|(3Bcd ef gedg|eaag a2 (3aaa|
|bagb agef|gage dBGB|cABG A~E3|GABG A2 AB||
